X: 737
T: Jianli minbin
L: 1/8
M: 2/4
K: G
d d d A [I:setbarnb 1]| 
d3e | 
c B d A | 
G4 | 
A A d B/ d/ | 
A> Ad2 | 
G G A, E | 
D4 |]

@@@ Tune index: 9611
